X:1
T:Oh when the Saints
M:4/4
L:1/8
Q:1/4=121
R:Traditional
K:Fmaj
V:1
FAB||:"F" c5 FAB |c5 FAB |c2 A2 F2 A2 |
w:Oh when the Saints Oh when the saints Oh when the Saints come march-ing
"C7" G5 GAG |"F" F3 F"F7" A2 c2 |"Bb" c(B3 "Bbm" B)B AB |
w:in Oh Lord I want to be in that num-_ber When the 
"F" c2 A2 "C7" F2 G2 |[1 "F" F5 FAB:|[2 "F" F8 |]
w:Saints come march-ing in. Oh when the in.
